src/assets/icons/Crypto.svg

<svg width="48" height="48" viewBox="0 0 48 48" fill="none" xmlns="http://www.w3.org/2000/svg">
<path d="M22.55 38.35H25.3V35.75C27.3333 35.5167 28.9167 34.8917 30.05 33.875C31.1833 32.8583 31.75 31.5 31.75 29.8C31.75 28.1 31.2667 26.7167 30.3 25.65C29.3333 24.5833 27.7 23.5667 25.4 22.6C23.4667 21.8 22.0667 21.0833 21.2 20.45C20.3333 19.8167 19.9 18.9667 19.9 17.9C19.9 16.8667 20.275 16.05 21.025 15.45C21.775 14.85 22.8 14.55 24.1 14.55C25.1 14.55 25.9667 14.7833 26.7 15.25C27.4333 15.7167 28.05 16.4167 28.55 17.35L30.95 16.2C30.3833 15.0333 29.6333 14.1167 28.7 13.45C27.7667 12.7833 26.6667 12.3833 25.4 12.25V9.7H22.65V12.25C20.95 12.4833 19.6083 13.1083 18.625 14.125C17.6417 15.1417 17.15 16.4 17.15 17.9C17.15 19.5333 17.65 20.8333 18.65 21.8C19.65 22.7667 21.15 23.6667 23.15 24.5C25.3833 25.4333 26.9167 26.275 27.75 27.025C28.5833 27.775 29 28.7 29 29.8C29 30.8667 28.5583 31.725 27.675 32.375C26.7917 33.025 25.6833 33.35 24.35 33.35C23.05 33.35 21.8917 32.9833 20.875 32.25C19.8583 31.5167 19.15 30.5167 18.75 29.25L16.2 30.1C16.9 31.6333 17.7583 32.8417 18.775 33.725C19.7917 34.6083 21.05 35.25 22.55 35.65V38.35ZM24 44C21.2667 44 18.6833 43.475 16.25 42.425C13.8167 41.375 11.6917 39.9417 9.875 38.125C8.05833 36.3083 6.625 34.1833 5.575 31.75C4.525 29.3167 4 26.7333 4 24C4 21.2333 4.525 18.6333 5.575 16.2C6.625 13.7667 8.05833 11.65 9.875 9.85C11.6917 8.05 13.8167 6.625 16.25 5.575C18.6833 4.525 21.2667 4 24 4C26.7667 4 29.3667 4.525 31.8 5.575C34.2333 6.625 36.35 8.05 38.15 9.85C39.95 11.65 41.375 13.7667 42.425 16.2C43.475 18.6333 44 21.2333 44 24C44 26.7333 43.475 29.3167 42.425 31.75C41.375 34.1833 39.95 36.3083 38.15 38.125C36.35 39.9417 34.2333 41.375 31.8 42.425C29.3667 43.475 26.7667 44 24 44ZM24 41C28.7333 41 32.75 39.3417 36.05 36.025C39.35 32.7083 41 28.7 41 24C41 19.2667 39.35 15.25 36.05 11.95C32.75 8.65 28.7333 7 24 7C19.3 7 15.2917 8.65 11.975 11.95C8.65833 15.25 7 19.2667 7 24C7 28.7 8.65833 32.7083 11.975 36.025C15.2917 39.3417 19.3 41 24 41Z" fill="#E0E0E0"/>
</svg>

<svg xmlns="http://www.w3.org/2000/svg" height="48" width="48"><path d="M22.55 38.35h2.75v-2.6q3.05-.35 4.75-1.875 1.7-1.525 1.7-4.075 0-2.55-1.45-4.15-1.45-1.6-4.9-3.05-2.9-1.2-4.2-2.15-1.3-.95-1.3-2.55 0-1.55 1.125-2.45 1.125-.9 3.075-.9 1.5 0 2.6.7t1.85 2.1l2.4-1.15q-.85-1.75-2.25-2.75t-3.3-1.2V9.7h-2.75v2.55q-2.55.35-4.025 1.875Q17.15 15.65 17.15 17.9q0 2.45 1.5 3.9 1.5 1.45 4.5 2.7 3.35 1.4 4.6 2.525Q29 28.15 29 29.8q0 1.6-1.325 2.575-1.325.975-3.325.975-1.95 0-3.475-1.1-1.525-1.1-2.125-3l-2.55.85q1.05 2.3 2.575 3.625Q20.3 35.05 22.55 35.65ZM24 44q-4.1 0-7.75-1.575-3.65-1.575-6.375-4.3-2.725-2.725-4.3-6.375Q4 28.1 4 24q0-4.15 1.575-7.8 1.575-3.65 4.3-6.35 2.725-2.7 6.375-4.275Q19.9 4 24 4q4.15 0 7.8 1.575 3.65 1.575 6.35 4.275 2.7 2.7 4.275 6.35Q44 19.85 44 24q0 4.1-1.575 7.75-1.575 3.65-4.275 6.375t-6.35 4.3Q28.15 44 24 44Zm0-3q7.1 0 12.05-4.975Q41 31.05 41 24q0-7.1-4.95-12.05Q31.1 7 24 7q-7.05 0-12.025 4.95Q7 16.9 7 24q0 7.05 4.975 12.025Q16.95 41 24 41Zm0-17Z"/></svg>
